src/icons/svgs/16/graduation-cap.svg

<svg width="16" height="16" viewBox="0 0 16 16" fill="none" xmlns="http://www.w3.org/2000/svg">
<g clip-path="url(#clip0)">
<path d="M15.5775 5.57534L8.51 3.09042C8.16707 2.96986 7.79218 2.96986 7.44925 3.09042L0.40125 5.57534C0.16095 5.66128 0 5.88718 0 6.14255C0 6.39792 0.16095 6.62505 0.40125 6.70951L1.90175 7.23768C1.6045 7.62564 1.39525 8.07647 1.288 8.5624C1.00125 8.68149 0.8 8.96141 0.8 9.28553C0.8 9.52992 0.92035 9.73954 1.0985 9.88368L0.47775 13.5423C0.437 13.7815 0.625 14 0.87225 14H2.32775C2.57492 14 2.763 13.782 2.72225 13.5425L2.1015 9.88392C2.27975 9.73979 2.4 9.50898 2.4 9.28553C2.4 9.03286 2.27065 8.81826 2.082 8.67437C2.18675 8.24373 2.40131 7.84633 2.7055 7.51957L7.4705 9.19492C7.81343 9.31549 8.18832 9.31549 8.53125 9.19492L15.5988 6.71001C15.84 6.62382 16 6.39792 16 6.14255C16 5.88718 15.84 5.66128 15.5775 5.57534ZM8.7775 9.93377C8.5425 10.0246 8.2725 10.0713 8 10.0713C7.72733 10.0714 7.45669 10.0252 7.2 9.93488L3.57 8.65939L3.2 12.1658C3.2 13.1799 5.3275 14 8 14C10.6275 14 12.8 13.1799 12.8 12.1665L12.4305 8.65767L8.7775 9.93377Z" fill="black"/>
</g>
<defs>
<clipPath id="clip0">
<rect width="16" height="16" fill="white"/>
</clipPath>
</defs>
</svg>

<svg width="16" height="16" viewBox="0 0 16 16" xmlns="http://www.w3.org/2000/svg">
    <g clip-path="url(#a)">
        <path d="M15.578 5.575 8.51 3.09a1.6 1.6 0 0 0-1.06 0L.4 5.575a.602.602 0 0 0 0 1.135l1.5.528a3.367 3.367 0 0 0-.613 1.324.786.786 0 0 0-.488.724c0 .244.12.454.298.598l-.62 3.658A.395.395 0 0 0 .871 14h1.456a.395.395 0 0 0 .394-.457l-.62-3.66a.801.801 0 0 0 .298-.597.768.768 0 0 0-.318-.612c.105-.43.32-.828.623-1.154L7.47 9.195a1.6 1.6 0 0 0 1.06 0L15.6 6.71a.602.602 0 0 0 .4-.567.593.593 0 0 0-.422-.568zm-6.8 4.359c-.236.09-.505.137-.778.137s-.543-.046-.8-.136L3.57 8.659l-.37 3.507C3.2 13.18 5.327 14 8 14c2.627 0 4.8-.82 4.8-1.834l-.37-3.508-3.652 1.276z"/>
    </g>
    <defs>
        <clipPath id="a">
            <path fill="#fff" d="M0 0h16v16H0z"/>
        </clipPath>
    </defs>
</svg>
